packages/foundations/assets/icons/functional/images/maps/location_crosshairs_28.svg

<svg width="28" height="28" viewBox="0 0 28 28" fill="none" xmlns="http://www.w3.org/2000/svg">
<g clip-path="url(#clip0_186_44)">
<path fill-rule="evenodd" clip-rule="evenodd" d="M14 1.75C14.4922 1.75 14.875 2.13281 14.875 2.625V6.17969C18.5391 6.5898 21.4102 9.48833 21.8203 13.125H25.375C25.8672 13.125 26.25 13.5078 26.25 14C26.25 14.4922 25.8672 14.875 25.375 14.875H21.8203C21.4102 18.5117 18.5117 21.4102 14.875 21.8203V25.375C14.875 25.8672 14.4922 26.25 14 26.25C13.5078 26.25 13.125 25.8672 13.125 25.375V21.8203C9.48833 21.4102 6.5898 18.5391 6.17969 14.875H2.625C2.13281 14.875 1.75 14.4922 1.75 14C1.75 13.5078 2.13281 13.125 2.625 13.125H6.17969C6.5898 9.48833 9.48833 6.5898 13.125 6.17969V2.625C13.125 2.13281 13.5078 1.75 14 1.75ZM14 7.875C10.6094 7.875 7.875 10.6094 7.875 14C7.875 17.3906 10.6094 20.125 14 20.125C17.3906 20.125 20.125 17.3906 20.125 14C20.125 10.6094 17.3906 7.875 14 7.875ZM14 16.625C15.4492 16.625 16.625 15.4492 16.625 14C16.625 12.5508 15.4492 11.375 14 11.375C12.5508 11.375 11.375 12.5508 11.375 14C11.375 15.4492 12.5508 16.625 14 16.625Z" fill="#1A1C1F"/>
</g>
<defs>
<clipPath id="clip0_186_44">
<rect width="28" height="28" fill="white"/>
</clipPath>
</defs>
</svg>

<svg xmlns="http://www.w3.org/2000/svg" width="28" height="28" fill="none"><g clip-path="url(#a)"><path fill="#1A1C1F" fill-rule="evenodd" d="M14 1.75c.492 0 .875.383.875.875V6.18a7.88 7.88 0 0 1 6.945 6.945h3.555c.492 0 .875.383.875.875a.864.864 0 0 1-.875.875H21.82a7.9 7.9 0 0 1-6.945 6.945v3.555a.864.864 0 0 1-.875.875.864.864 0 0 1-.875-.875V21.82a7.88 7.88 0 0 1-6.945-6.945H2.625A.864.864 0 0 1 1.75 14c0-.492.383-.875.875-.875H6.18a7.9 7.9 0 0 1 6.945-6.945V2.625c0-.492.383-.875.875-.875m0 6.125A6.115 6.115 0 0 0 7.875 14 6.115 6.115 0 0 0 14 20.125 6.115 6.115 0 0 0 20.125 14 6.115 6.115 0 0 0 14 7.875m0 8.75a2.626 2.626 0 1 0-.001-5.251A2.626 2.626 0 0 0 14 16.625" clip-rule="evenodd"/></g><defs><clipPath id="a"><path fill="#fff" d="M0 0h28v28H0z"/></clipPath></defs></svg>
